X:1
T: May Day
C:
R:Strathspey
Q: 128
K:D
M:4/4
L:1/16
|:ad3 a3f ad3 a3f|ad3 a3f ge3 e3f|ad3 a3f ad3 a3f|gb3 a3g fd3 d4|
ad3 a3f ad3 a3f|ad3 a3f ge3 e3f|ad3 a3f ad3 a3f|gb3 a3g fd3 d4|
d4 AF3 d4 AF3|d4 AF3 GE3 E4|d4 AF3 d4 AF3|GB3 A3G FD3 D4|
d4 AF3 d4 AF3|d4 AF3 GE3 E4|d4 AF3 d4 AF3|GB3 A3G FD3 D4:|
